icons/1_Primary/Hubspot.svg

<svg width="1024" height="1024" viewBox="0 0 1024 1024" fill="none" xmlns="http://www.w3.org/2000/svg">
<g clip-path="url(#clip0_2_2451)">
<path d="M512 1024C794.77 1024 1024 794.77 1024 512C1024 229.23 794.77 0 512 0C229.23 0 0 229.23 0 512C0 794.77 229.23 1024 512 1024Z" fill="#FF837D"/>
<path d="M644.52 424.52V363.52C652.63 359.806 659.511 353.853 664.352 346.361C669.194 338.869 671.795 330.15 671.85 321.23V319.82C671.85 294.04 650.53 272.96 624.5 272.96H623.07C597.07 272.96 575.72 294.05 575.72 319.82V321.23C575.777 330.15 578.379 338.867 583.221 346.359C588.062 353.85 594.941 359.804 603.05 363.52V424.52C579.7 428.042 557.682 437.624 539.19 452.31L370.11 322.14C371.294 317.858 371.929 313.443 372 309C372 279.79 348.11 256.08 318.6 256C289.09 255.92 265.15 279.59 265.12 308.81C265.09 338.03 288.97 361.69 318.48 361.74C327.723 361.7 336.797 359.257 344.81 354.65L511.18 482.75C496.212 505.046 488.392 531.372 488.762 558.223C489.132 585.074 497.674 611.176 513.25 633.05L462.63 683.15C456.641 681.273 450.316 680.716 444.09 681.519C437.865 682.322 431.888 684.465 426.571 687.8C421.254 691.135 416.723 695.583 413.291 700.838C409.858 706.093 407.606 712.03 406.689 718.239C405.772 724.449 406.212 730.783 407.979 736.806C409.746 742.829 412.798 748.397 416.924 753.126C421.05 757.856 426.153 761.635 431.88 764.203C437.608 766.771 443.824 768.066 450.1 768C474.34 768 494 748.54 494 724.55C493.957 720.334 493.283 716.147 492 712.13L542 662.61C565.537 680.451 594.266 690.098 623.8 690.08C698.41 690.08 758.86 630.25 758.86 556.43C758.85 489.62 709.23 434.42 644.52 424.52ZM623.8 624.94C585.57 624.94 554.56 594.27 554.56 556.43C554.56 518.59 585.56 487.91 623.8 487.91C662.04 487.91 693.06 518.58 693.06 556.43C693.06 594.28 662.06 624.94 623.8 624.94Z" fill="white"/>
</g>
<defs>
<clipPath id="clip0_2_2451">
<rect width="1024" height="1024" fill="white"/>
</clipPath>
</defs>
</svg>

<svg xmlns="http://www.w3.org/2000/svg" width="1024" height="1024" fill="none">
   <g clip-path="url(#a)">
      <path fill="#FF837D" d="M512 1024c282.77 0 512-229.23 512-512S794.77 0 512 0 0 229.23 0 512s229.23 512 512 512Z"/>
      <path fill="#fff" d="M644.52 424.52v-61a46.823 46.823 0 0 0 27.33-42.29v-1.41c0-25.78-21.32-46.86-47.35-46.86h-1.43c-26 0-47.35 21.09-47.35 46.86v1.41a46.844 46.844 0 0 0 27.33 42.29v61a135.077 135.077 0 0 0-63.86 27.79L370.11 322.14A52.447 52.447 0 0 0 372 309c0-29.21-23.89-52.92-53.4-53-29.51-.08-53.45 23.59-53.48 52.81-.03 29.22 23.85 52.88 53.36 52.93a53.288 53.288 0 0 0 26.33-7.09l166.37 128.1a132.14 132.14 0 0 0 2.07 150.3l-50.62 50.1A43.42 43.42 0 1 0 450.1 768c24.24 0 43.9-19.46 43.9-43.45a42.24 42.24 0 0 0-2-12.42l50-49.52a135.277 135.277 0 0 0 81.8 27.47c74.61 0 135.06-59.83 135.06-133.65-.01-66.81-49.63-122.01-114.34-131.91ZM623.8 624.94c-38.23 0-69.24-30.67-69.24-68.51s31-68.52 69.24-68.52c38.24 0 69.26 30.67 69.26 68.52 0 37.85-31 68.51-69.26 68.51Z"/>
   </g>
   <defs>
      <clipPath id="a">
         <path fill="#fff" d="M0 0h1024v1024H0z"/>
      </clipPath>
   </defs>
</svg>
